X:1
T:Lonach Highlander's (The)
T:Lonach Highlander's (The)
T:Alexander Walker
C:Alexander Walker
L:1/8
M:4/4
K:F
V:1 treble 
V:1
 A | F2 C>F A2 F>A | c2 A>c f>gf>c | F2 C>F A2 F>A | B>dc>B A>GF>E | F2 C>F A2 F>A | c2 A>c fcAF | %7
 d>fc>B A2 G2 | F2 F>F F2 :| f | a2 f>a g2 e>g | f2 e>f d>cB>A | B>cd>e f>dc>A | G2 G2 G2 A>G | %14
 F2 C>F A2 F>A | c2 A>c f3 c | d>fc>B A2 G2 | F2 F<F F2 fg | a2 f>a g2 e>g | f2 e>f d>cB>A | %20
 B>cd>e f>dc>A | G2 G2 G2 A>G | F2 C>F A2 F>A | c2 A>c f3 c | B>AB>c d>ef>g | a2 f<f [Af]2 || %26

